X:1
T:Title
%%score [ ( 1 2 ) ( 3 4 ) ] { ( 5 6 ) | 7 }
L:1/8
Q:1/4=120
M:4/4
K:E
V:1 treble nm="Midi_74"
V:2 treble 
V:3 bass nm="Midi_74"
V:4 bass 
V:5 treble nm="Org."
V:6 treble 
V:7 bass 
V:1
 e8 |"^Recte et Retro." c4 A4 | G8 || E8 |"^Double counterpoint." D4 F4 | A4 B4 | G8 || G8 | %8
 A4 c4 | e8 || G8 | B4 A4 |"^William Henry Havergal\n(1793-1870)" F4 D4 | E8 |] %14
V:2
 E8 | E4 E4 | E8 || B,8 | B,4 F4 | F4 F4 | E8 || E8 | E4 E4 | E8 || E8 | F4 F4 | F4 B,4 | B,8 |] %14
V:3
 B,8 | A,4 A,4 | B,8 || B,8 | B,4 C4 | C4 B,4 | B,8 || B,8 | A,4 A,4 | B,8 || B,8 | B,4 C4 | %12
 C4 B,4 | G,8 |] %14
V:4
 G,,8 | A,,4 C,4 | E,8 || G,8 | B,4 A,4 | F,4 D,4 | E,8 || E,8 | C,4 A,,4 | G,,8 || E,8 | D,4 F,4 | %12
 A,4 B,4 | E,8 |] %14
V:5
 e8 | [Ac]4 A4 | G8 || E8 | D4 F4 | A4 B4 | G8 || G8 | A4 c4 | e8 || G8 | B4 A4 | F4 D4 | E8 |] %14
V:6
 [EB]8 | E8 | E8 || B,8 | B,4 C4 | [CF]4 [B,F]4 | [B,E]8 || [B,E]8 | E4 [EA]4 | [EB]8 || [B,E]8 | %11
 [B,F]4 [CF]4 | C4 B,4 | [G,B,]8 |] %14
V:7
 G,,8 | A,,4 C,4 | E,8 || G,8 | B,4 A,4 | F,4 D,4 | E,8 || E,8 | C,4 A,,4 | G,,8 || E,8 | D,4 F,4 | %12
 A,4 B,4 | E,8 |] %14

